packages/symbols/svgs/duotone/share-from-square-duotone.svg

<svg width="24" height="24" viewBox="0 0 24 24" fill="none" xmlns="http://www.w3.org/2000/svg">
<path opacity="0.5" fill-rule="evenodd" clip-rule="evenodd" d="M1 8C1 7.44772 1.44772 7 2 7H7C7.55228 7 8 7.44772 8 8C8 8.55228 7.55228 9 7 9H3V21H17V15C17 14.4477 17.4477 14 18 14C18.5523 14 19 14.4477 19 15V22C19 22.5523 18.5523 23 18 23H2C1.44772 23 1 22.5523 1 22V8Z" fill="black"/>
<path fill-rule="evenodd" clip-rule="evenodd" d="M18.7071 1.29289C18.3166 0.902369 17.6834 0.902369 17.2929 1.29289C16.9024 1.68342 16.9024 2.31658 17.2929 2.70711L19.5858 5H19C16.0826 5 13.2847 6.15893 11.2218 8.22183C9.15893 10.2847 8 13.0826 8 16C8 16.5523 8.44772 17 9 17C9.55228 17 10 16.5523 10 16C10 13.6131 10.9482 11.3239 12.636 9.63604C14.3239 7.94821 16.6131 7 19 7H19.5858L17.2929 9.29289C16.9024 9.68342 16.9024 10.3166 17.2929 10.7071C17.6834 11.0976 18.3166 11.0976 18.7071 10.7071L22.7065 6.70774L22.7071 6.70711C22.7093 6.70493 22.7115 6.70274 22.7136 6.70055C22.9038 6.5069 22.9992 6.25507 23 6.003M22.7136 5.29945C22.8063 5.3938 22.8764 5.50195 22.9241 5.61722C22.8746 5.49788 22.8027 5.39021 22.7136 5.29945ZM18.7071 1.29289L22.7065 5.29226L18.7071 1.29289Z" fill="black"/>
</svg>

<svg width="24" height="24" viewBox="0 0 24 24" xmlns="http://www.w3.org/2000/svg"><path opacity=".5" fill-rule="evenodd" clip-rule="evenodd" d="M1 8a1 1 0 0 1 1-1h5a1 1 0 0 1 0 2H3v12h14v-6a1 1 0 1 1 2 0v7a1 1 0 0 1-1 1H2a1 1 0 0 1-1-1V8Z"/><path fill-rule="evenodd" clip-rule="evenodd" d="M18.707 1.293a1 1 0 1 0-1.414 1.414L19.586 5H19A11 11 0 0 0 8 16a1 1 0 1 0 2 0 9 9 0 0 1 9-9h.586l-2.293 2.293a1 1 0 0 0 1.414 1.414l4-4A.997.997 0 0 0 23 6.003m-.286-.704Zm-4.007-4.006 4 4-4-4Z"/></svg>
